X:223
T:Taylor done over - FJ Adams
%%VWML:SBG-1-2-800-0
F:http://www.vwml.org/record/SBG/1/2/800
Z:Original Sibelius transcriptions by M. & S. Graebe
M:3/8
I:linebreak $
K:F
V:1 treble nm="P1"
V:1
 C | F A c | F A c | F A c | c A F | E G B | E G B | E G B | B A c | f d d | e c A |$ B3/2 c/ d | %12
 d c A | B3/2 B/ B | B3/2 c/ d | G A B | c A F | c A F | G/A/ G/A/ G/A/ | B G E | F2 x | %21

